tests/fixtures/existing-lightroom.xmp
<?xpacket begin="﻿" id="W5M0MpCehiHzreSzNTczkc9d"?>
<x:xmpmeta xmlns:x="adobe:ns:meta/" x:xmptk="Adobe XMP Core 9.0">
  <rdf:RDF xmlns:rdf="http://www.w3.org/1999/02/22-rdf-syntax-ns#">
    <rdf:Description rdf:about=""
      xmlns:xmp="http://ns.adobe.com/xap/1.0/"
      xmlns:crs="http://ns.adobe.com/camera-raw-settings/1.0/"
      xmp:Rating="2"
      xmp:MetadataDate="2026-07-01T12:00:00+08:00"
      crs:ProcessVersion="15.4"
      crs:Exposure2012="+0.35"
      crs:Contrast2012="+12"
      crs:Texture="8"
      crs:CameraProfile="Adobe Color" />
  </rdf:RDF>
</x:xmpmeta>
<?xpacket end="w"?>
